src/assets/Imgs/rank_down.svg

<svg fill="none" height="800" transform="scale(-1)" viewBox="0 0 24 24" width="800" xmlns="http://www.w3.org/2000/svg"><g fill="#5200ff"><path d="m20 10.875c.3013 0 .5733-.1802.6907-.4577.1174-.2774.0575-.59814-.1523-.81441l-4-4.125c-.1412-.14567-.3355-.22789-.5384-.22789s-.3971.08222-.5384.22789l-4 4.125c-.2097.21627-.2697.53701-.1523.81441.1175.2775.3895.4577.6907.4577h3.25v7.125c0 .4142.3358.75.75.75s.75-.3358.75-.75v-7.125z"/><path d="m12 13.125c.3013 0 .5733.1802.6907.4577.1174.2774.0575.5981-.1523.8144l-3.99996 4.125c-.14125.1457-.33551.2279-.53842.2279s-.39717-.0822-.53843-.2279l-4-4.125c-.20971-.2163-.26967-.537-.15225-.8144.11742-.2775.38943-.4577.69068-.4577h3.25v-7.125c0-.41421.33578-.75.75-.75.41421 0 .75.33579.75.75v7.125z" opacity=".5"/></g></svg>

<svg width="800px" height="800px" viewBox="0 0 24 24" fill="none" xmlns="http://www.w3.org/2000/svg" transform="matrix(-1, 0, 0, -1, 0, 0)">

<g id="SVGRepo_bgCarrier" stroke-width="0"/>

<g id="SVGRepo_tracerCarrier" stroke-linecap="round" stroke-linejoin="round"/>

<g id="SVGRepo_iconCarrier"> <path d="M20 10.875C20.3013 10.875 20.5733 10.6948 20.6907 10.4173C20.8081 10.1399 20.7482 9.81916 20.5384 9.60289L16.5384 5.47789C16.3972 5.33222 16.2029 5.25 16 5.25C15.7971 5.25 15.6029 5.33222 15.4616 5.47789L11.4616 9.60289C11.2519 9.81916 11.1919 10.1399 11.3093 10.4173C11.4268 10.6948 11.6988 10.875 12 10.875H15.25V18C15.25 18.4142 15.5858 18.75 16 18.75C16.4142 18.75 16.75 18.4142 16.75 18L16.75 10.875H20Z" fill="#5200FF"/> <path opacity="0.5" d="M12 13.125C12.3013 13.125 12.5733 13.3052 12.6907 13.5827C12.8081 13.8601 12.7482 14.1808 12.5384 14.3971L8.53844 18.5221C8.39719 18.6678 8.20293 18.75 8.00002 18.75C7.79711 18.75 7.60285 18.6678 7.46159 18.5221L3.46159 14.3971C3.25188 14.1808 3.19192 13.8601 3.30934 13.5827C3.42676 13.3052 3.69877 13.125 4.00002 13.125H7.25002L7.25002 6C7.25002 5.58579 7.5858 5.25 8.00002 5.25C8.41423 5.25 8.75002 5.58579 8.75002 6L8.75002 13.125L12 13.125Z" fill="#5200FF"/> </g>

</svg>
